X:14249
T:Ri/l gan ainm
M:C|
L:1/8
S:Session in Cleary's back room, Miltown Malbay 1991
R:reel
K:A
Ac~c2 eAce|df~f2 ecAc|df~f2 edcA|~B2cA {c}BAFE|
Ac~c2 eAce|df~f2 ecAc|df~f2 edcA|1 {c}BABc AdcB:|2 {c}BABc ABcd||
|:ea~a2 fecf|eAcA {c}BAFA|ea~a2 fece|fB{c}BA Bcde|
{c'}aece Aece|dB{c}BA {c}BAFA|df~f2 edcA|1 {c}BABc ABcd:|2 {c}BABc AdcB|
|
